findly-builder/apps/searchassist/src/assets/icons/onboarding/helpdoc.svg

<svg width="36" height="36" viewBox="0 0 36 36" fill="none" xmlns="http://www.w3.org/2000/svg">
<path d="M4.901 13.9649C2.50175 11.5657 2.50175 7.66195 4.901 5.2627C6.0635 4.1002 7.6085 3.46045 9.2525 3.46045C10.8965 3.46045 12.4415 4.10095 13.604 5.2627L12.5435 6.3232C11.6645 5.4442 10.496 4.96045 9.2525 4.96045C8.009 4.96045 6.8405 5.4442 5.9615 6.3232C4.14725 8.13745 4.14725 11.0894 5.9615 12.9044L4.901 13.9649Z" fill="url(#paint0_linear_629_32417)"/>
<path d="M9.2525 33.264C7.60925 33.264 6.0635 32.6235 4.901 31.4618C2.50175 29.0625 2.50175 25.1588 4.901 22.7595L5.9615 23.82C4.14725 25.6343 4.14725 28.5863 5.9615 30.4013C6.8405 31.2803 8.009 31.764 9.2525 31.764C10.496 31.764 11.6645 31.2795 12.5435 30.4013L13.604 31.4618C12.4415 32.6235 10.8958 33.264 9.2525 33.264Z" fill="url(#paint1_linear_629_32417)"/>
<path d="M31.0995 13.9649L30.039 12.9044C31.8532 11.0902 31.8532 8.1382 30.039 6.3232C29.16 5.4442 27.9915 4.96045 26.748 4.96045C25.5045 4.96045 24.336 5.44495 23.457 6.3232L22.3965 5.2627C23.559 4.1002 25.104 3.46045 26.748 3.46045C28.392 3.46045 29.937 4.10095 31.0995 5.2627C33.4987 7.66195 33.4987 11.5657 31.0995 13.9649Z" fill="url(#paint2_linear_629_32417)"/>
<path d="M26.748 33.264C25.1047 33.264 23.559 32.6235 22.3965 31.4618L23.457 30.4013C24.336 31.2803 25.5045 31.764 26.748 31.764C27.9915 31.764 29.16 31.2795 30.039 30.4013C31.8532 28.587 31.8532 25.635 30.039 23.82L31.0995 22.7595C33.4987 25.1588 33.4987 29.0625 31.0995 31.4618C29.937 32.6235 28.3912 33.264 26.748 33.264Z" fill="url(#paint3_linear_629_32417)"/>
<path d="M18.0001 3.75C10.1266 3.75 3.74414 10.1325 3.74414 18.006C3.74414 25.8795 10.1266 32.2612 18.0001 32.2612C25.8736 32.2612 32.2561 25.8787 32.2561 18.0052C32.2561 10.1318 25.8736 3.75 18.0001 3.75ZM18.0001 26.2612C13.4409 26.2612 9.74414 22.5653 9.74414 18.0052C9.74414 13.4452 13.4409 9.75 18.0001 9.75C22.5594 9.75 26.2561 13.446 26.2561 18.006C26.2561 22.566 22.5594 26.2612 18.0001 26.2612Z" fill="url(#paint4_radial_629_32417)"/>
<path d="M18 9.75C19.3515 9.75 20.6235 10.0815 21.75 10.6575V4.26525C20.553 3.939 19.2997 3.75 18 3.75C16.7002 3.75 15.447 3.939 14.25 4.26525V10.6575C15.3765 10.0815 16.6485 9.75 18 9.75Z" fill="#E92D3B"/>
<path d="M18 26.2614C16.6485 26.2614 15.3765 25.9299 14.25 25.3539V31.7461C15.447 32.0724 16.7002 32.2614 18 32.2614C19.2997 32.2614 20.553 32.0724 21.75 31.7461V25.3539C20.6235 25.9299 19.3515 26.2614 18 26.2614Z" fill="#E92D3B"/>
<path d="M9.74414 18.0061C9.74414 16.6546 10.0756 15.3826 10.6516 14.2561H4.25939C3.93314 15.4531 3.74414 16.7064 3.74414 18.0061C3.74414 19.3059 3.93314 20.5591 4.25939 21.7561H10.6516C10.0756 20.6296 9.74414 19.3576 9.74414 18.0061Z" fill="#E92D3B"/>
<path d="M31.7419 14.2561H25.3496C25.9256 15.3826 26.2571 16.6546 26.2571 18.0061C26.2571 19.3576 25.9256 20.6296 25.3496 21.7561H31.7419C32.0681 20.5591 32.2571 19.3059 32.2571 18.0061C32.2571 16.7064 32.0674 15.4524 31.7419 14.2561Z" fill="#E92D3B"/>
<path d="M18 7.5061C12.201 7.5061 7.5 12.2071 7.5 18.0061C7.5 23.8051 12.201 28.5061 18 28.5061C23.799 28.5061 28.5 23.8051 28.5 18.0061C28.5 12.2071 23.799 7.5061 18 7.5061ZM18 26.2614C13.4408 26.2614 9.744 22.5654 9.744 18.0054C9.744 13.4454 13.4408 9.7501 18 9.7501C22.5592 9.7501 26.256 13.4461 26.256 18.0061C26.256 22.5661 22.5592 26.2614 18 26.2614Z" fill="url(#paint5_radial_629_32417)"/>
<defs>
<linearGradient id="paint0_linear_629_32417" x1="2.9945" y1="3.55345" x2="9.026" y2="9.39445" gradientUnits="userSpaceOnUse">
<stop stop-color="#FEDE00"/>
<stop offset="0.311" stop-color="#FECC00"/>
<stop offset="0.634" stop-color="#FFB700"/>
<stop offset="0.826" stop-color="#EBA600"/>
<stop offset="1" stop-color="#C28200"/>
</linearGradient>
<linearGradient id="paint1_linear_629_32417" x1="0.90725" y1="35.4548" x2="8.92625" y2="27.4358" gradientUnits="userSpaceOnUse">
<stop stop-color="#FEDE00"/>
<stop offset="0.311" stop-color="#FECC00"/>
<stop offset="0.634" stop-color="#FFB700"/>
<stop offset="0.826" stop-color="#EBA600"/>
<stop offset="1" stop-color="#C28200"/>
</linearGradient>
<linearGradient id="paint2_linear_629_32417" x1="33.5317" y1="2.8297" x2="27.1582" y2="9.2032" gradientUnits="userSpaceOnUse">
<stop stop-color="#FEDE00"/>
<stop offset="0.311" stop-color="#FECC00"/>
<stop offset="0.634" stop-color="#FFB700"/>
<stop offset="0.826" stop-color="#EBA600"/>
<stop offset="1" stop-color="#C28200"/>
</linearGradient>
<linearGradient id="paint3_linear_629_32417" x1="33.186" y1="33.5483" x2="27.057" y2="27.4185" gradientUnits="userSpaceOnUse">
<stop stop-color="#FEDE00"/>
<stop offset="0.311" stop-color="#FECC00"/>
<stop offset="0.634" stop-color="#FFB700"/>
<stop offset="0.826" stop-color="#EBA600"/>
<stop offset="1" stop-color="#C28200"/>
</linearGradient>
<radialGradient id="paint4_radial_629_32417" cx="0" cy="0" r="1" gradientUnits="userSpaceOnUse" gradientTransform="translate(16.9471 15.1335) scale(25.9642)">
<stop stop-color="#FAFAFB"/>
<stop offset="0.293" stop-color="#F6F7F8"/>
<stop offset="0.566" stop-color="#EBECEE"/>
<stop offset="0.832" stop-color="#D8DCDF"/>
<stop offset="1" stop-color="#C8CDD1"/>
</radialGradient>
<radialGradient id="paint5_radial_629_32417" cx="0" cy="0" r="1" gradientUnits="userSpaceOnUse" gradientTransform="translate(18 18.0061) scale(10.5)">
<stop/>
<stop offset="1" stop-opacity="0"/>
</radialGradient>
</defs>
</svg>

<svg width="36" height="36" fill="none" xmlns="http://www.w3.org/2000/svg"><path d="M4.901 13.965a6.16 6.16 0 0 1 0-8.702A6.113 6.113 0 0 1 9.252 3.46c1.644 0 3.19.641 4.352 1.803l-1.06 1.06A4.623 4.623 0 0 0 9.252 4.96a4.623 4.623 0 0 0-3.29 1.363 4.66 4.66 0 0 0 0 6.581L4.9 13.964Z" fill="url(#a)"/><path d="M9.252 33.264a6.117 6.117 0 0 1-4.351-1.802 6.16 6.16 0 0 1 0-8.703l1.06 1.061a4.66 4.66 0 0 0 0 6.581 4.623 4.623 0 0 0 3.291 1.363 4.626 4.626 0 0 0 3.291-1.363l1.061 1.06a6.117 6.117 0 0 1-4.351 1.803Z" fill="url(#b)"/><path d="m31.1 13.965-1.061-1.06a4.66 4.66 0 0 0 0-6.582 4.623 4.623 0 0 0-3.291-1.363 4.626 4.626 0 0 0-3.291 1.363l-1.06-1.06a6.113 6.113 0 0 1 4.351-1.803c1.644 0 3.189.641 4.351 1.803a6.16 6.16 0 0 1 0 8.702Z" fill="url(#c)"/><path d="M26.748 33.264a6.117 6.117 0 0 1-4.352-1.802l1.061-1.06a4.623 4.623 0 0 0 3.291 1.362 4.626 4.626 0 0 0 3.291-1.363 4.66 4.66 0 0 0 0-6.581l1.06-1.06a6.16 6.16 0 0 1 0 8.702 6.117 6.117 0 0 1-4.351 1.802Z" fill="url(#d)"/><path d="M18 3.75c-7.873 0-14.256 6.383-14.256 14.256S10.127 32.261 18 32.261c7.874 0 14.256-6.382 14.256-14.256C32.256 10.132 25.874 3.75 18 3.75Zm0 22.511A8.256 8.256 0 1 1 18 9.75a8.256 8.256 0 0 1 0 16.512Z" fill="url(#e)"/><path d="M18 9.75a8.21 8.21 0 0 1 3.75.908V4.265A14.225 14.225 0 0 0 18 3.75c-1.3 0-2.553.189-3.75.515v6.393A8.21 8.21 0 0 1 18 9.75Zm0 16.511a8.21 8.21 0 0 1-3.75-.907v6.392c1.197.326 2.45.515 3.75.515 1.3 0 2.553-.189 3.75-.515v-6.392a8.21 8.21 0 0 1-3.75.907Zm-8.256-8.255a8.21 8.21 0 0 1 .908-3.75H4.259a14.225 14.225 0 0 0-.515 3.75c0 1.3.19 2.553.515 3.75h6.393a8.21 8.21 0 0 1-.908-3.75Zm21.998-3.75H25.35a8.21 8.21 0 0 1 0 7.5h6.392c.326-1.197.515-2.45.515-3.75 0-1.3-.19-2.554-.515-3.75Z" fill="#E92D3B"/><path d="M18 7.506c-5.799 0-10.5 4.701-10.5 10.5 0 5.8 4.701 10.5 10.5 10.5s10.5-4.7 10.5-10.5c0-5.799-4.701-10.5-10.5-10.5Zm0 18.755A8.256 8.256 0 1 1 18 9.75a8.256 8.256 0 0 1 0 16.512Z" fill="url(#f)"/><defs><linearGradient id="a" x1="2.994" y1="3.553" x2="9.026" y2="9.394" gradientUnits="userSpaceOnUse"><stop stop-color="#FEDE00"/><stop offset=".311" stop-color="#FECC00"/><stop offset=".634" stop-color="#FFB700"/><stop offset=".826" stop-color="#EBA600"/><stop offset="1" stop-color="#C28200"/></linearGradient><linearGradient id="b" x1=".907" y1="35.455" x2="8.926" y2="27.436" gradientUnits="userSpaceOnUse"><stop stop-color="#FEDE00"/><stop offset=".311" stop-color="#FECC00"/><stop offset=".634" stop-color="#FFB700"/><stop offset=".826" stop-color="#EBA600"/><stop offset="1" stop-color="#C28200"/></linearGradient><linearGradient id="c" x1="33.532" y1="2.83" x2="27.158" y2="9.203" gradientUnits="userSpaceOnUse"><stop stop-color="#FEDE00"/><stop offset=".311" stop-color="#FECC00"/><stop offset=".634" stop-color="#FFB700"/><stop offset=".826" stop-color="#EBA600"/><stop offset="1" stop-color="#C28200"/></linearGradient><linearGradient id="d" x1="33.186" y1="33.548" x2="27.057" y2="27.419" gradientUnits="userSpaceOnUse"><stop stop-color="#FEDE00"/><stop offset=".311" stop-color="#FECC00"/><stop offset=".634" stop-color="#FFB700"/><stop offset=".826" stop-color="#EBA600"/><stop offset="1" stop-color="#C28200"/></linearGradient><radialGradient id="e" cx="0" cy="0" r="1" gradientUnits="userSpaceOnUse" gradientTransform="translate(16.947 15.133) scale(25.9642)"><stop stop-color="#FAFAFB"/><stop offset=".293" stop-color="#F6F7F8"/><stop offset=".566" stop-color="#EBECEE"/><stop offset=".832" stop-color="#D8DCDF"/><stop offset="1" stop-color="#C8CDD1"/></radialGradient><radialGradient id="f" cx="0" cy="0" r="1" gradientUnits="userSpaceOnUse" gradientTransform="matrix(10.5 0 0 10.5 18 18.006)"><stop/><stop offset="1" stop-opacity="0"/></radialGradient></defs></svg>
